assets/img/main/trust/sti.svg

<svg width="963" height="95" viewBox="0 0 963 95" fill="none" xmlns="http://www.w3.org/2000/svg">
<path d="M39.704 94.048C32.1947 94.048 24.9413 93.1947 17.944 91.488C10.9467 89.7813 5.18667 87.5627 0.664 84.832L10.392 62.816C14.6587 65.2907 19.3947 67.296 24.6 68.832C29.8907 70.2827 35.0107 71.008 39.96 71.008C42.8613 71.008 45.1227 70.8373 46.744 70.496C48.4507 70.0693 49.688 69.5147 50.456 68.832C51.224 68.064 51.608 67.168 51.608 66.144C51.608 64.5227 50.712 63.2427 48.92 62.304C47.128 61.3653 44.7387 60.5973 41.752 60C38.8507 59.3173 35.6507 58.6347 32.152 57.952C28.6533 57.184 25.112 56.2027 21.528 55.008C18.0293 53.8133 14.7867 52.2347 11.8 50.272C8.89867 48.3093 6.552 45.7493 4.76 42.592C2.968 39.3493 2.072 35.3387 2.072 30.56C2.072 25.0133 3.608 19.9787 6.68 15.456C9.83733 10.848 14.488 7.17867 20.632 4.448C26.8613 1.71733 34.584 0.351997 43.8 0.351997C49.8587 0.351997 55.832 0.991997 61.72 2.272C67.608 3.55199 72.8987 5.51466 77.592 8.16L68.504 30.048C64.0667 27.8293 59.7573 26.1653 55.576 25.056C51.48 23.9467 47.4693 23.392 43.544 23.392C40.6427 23.392 38.3387 23.648 36.632 24.16C34.9253 24.672 33.688 25.3547 32.92 26.208C32.2373 27.0613 31.896 28 31.896 29.024C31.896 30.56 32.792 31.7973 34.584 32.736C36.376 33.5893 38.7227 34.3147 41.624 34.912C44.6107 35.5093 47.8533 36.1493 51.352 36.832C54.936 37.5147 58.4773 38.4533 61.976 39.648C65.4747 40.8427 68.6747 42.4213 71.576 44.384C74.5627 46.3467 76.952 48.9067 78.744 52.064C80.536 55.2213 81.432 59.1467 81.432 63.84C81.432 69.3013 79.8533 74.336 76.696 78.944C73.624 83.4667 69.016 87.136 62.872 89.952C56.728 92.6827 49.0053 94.048 39.704 94.048ZM108.627 92V25.824H82.387V2.39999H165.075V25.824H138.835V92H108.627ZM172.921 92V2.39999H203.129V92H172.921ZM302.382 94.048C295.214 94.048 288.558 92.9387 282.414 90.72C276.355 88.416 271.065 85.1733 266.542 80.992C262.105 76.8107 258.649 71.8613 256.174 66.144C253.699 60.4267 252.462 54.112 252.462 47.2C252.462 40.288 253.699 33.9733 256.174 28.256C258.649 22.5387 262.105 17.5893 266.542 13.408C271.065 9.22666 276.355 6.02666 282.414 3.808C288.558 1.504 295.214 0.351997 302.382 0.351997C311.171 0.351997 318.937 1.888 325.678 4.96C332.505 8.032 338.137 12.4693 342.574 18.272L323.502 35.296C320.857 31.968 317.913 29.408 314.67 27.616C311.513 25.7387 307.929 24.8 303.918 24.8C300.761 24.8 297.902 25.312 295.342 26.336C292.782 27.36 290.563 28.8533 288.686 30.816C286.894 32.7787 285.486 35.168 284.462 37.984C283.438 40.7147 282.926 43.7867 282.926 47.2C282.926 50.6133 283.438 53.728 284.462 56.544C285.486 59.2747 286.894 61.6213 288.686 63.584C290.563 65.5467 292.782 67.04 295.342 68.064C297.902 69.088 300.761 69.6 303.918 69.6C307.929 69.6 311.513 68.704 314.67 66.912C317.913 65.0347 320.857 62.432 323.502 59.104L342.574 76.128C338.137 81.8453 332.505 86.2827 325.678 89.44C318.937 92.512 311.171 94.048 302.382 94.048ZM396.397 94.048C389.144 94.048 382.402 92.896 376.173 90.592C370.029 88.288 364.696 85.0453 360.173 80.864C355.65 76.5973 352.109 71.6053 349.549 65.888C347.074 60.1707 345.837 53.9413 345.837 47.2C345.837 40.3733 347.074 34.144 349.549 28.512C352.109 22.7947 355.65 17.8453 360.173 13.664C364.696 9.39733 370.029 6.11199 376.173 3.808C382.402 1.504 389.144 0.351997 396.397 0.351997C403.736 0.351997 410.477 1.504 416.621 3.808C422.765 6.11199 428.098 9.39733 432.621 13.664C437.144 17.8453 440.642 22.7947 443.117 28.512C445.677 34.144 446.957 40.3733 446.957 47.2C446.957 53.9413 445.677 60.1707 443.117 65.888C440.642 71.6053 437.144 76.5973 432.621 80.864C428.098 85.0453 422.765 88.288 416.621 90.592C410.477 92.896 403.736 94.048 396.397 94.048ZM396.397 69.6C399.213 69.6 401.816 69.088 404.205 68.064C406.68 67.04 408.813 65.5893 410.605 63.712C412.482 61.7493 413.933 59.4027 414.957 56.672C415.981 53.856 416.493 50.6987 416.493 47.2C416.493 43.7013 415.981 40.5867 414.957 37.856C413.933 35.04 412.482 32.6933 410.605 30.816C408.813 28.8533 406.68 27.36 404.205 26.336C401.816 25.312 399.213 24.8 396.397 24.8C393.581 24.8 390.936 25.312 388.461 26.336C386.072 27.36 383.938 28.8533 382.061 30.816C380.269 32.6933 378.861 35.04 377.837 37.856C376.813 40.5867 376.301 43.7013 376.301 47.2C376.301 50.6987 376.813 53.856 377.837 56.672C378.861 59.4027 380.269 61.7493 382.061 63.712C383.938 65.5893 386.072 67.04 388.461 68.064C390.936 69.088 393.581 69.6 396.397 69.6ZM457.921 92V2.39999H482.753L518.593 60.896H505.537L540.353 2.39999H565.185L565.441 92H537.921L537.665 43.872H542.017L518.209 83.936H504.897L480.065 43.872H485.441V92H457.921ZM580.046 92V2.39999H623.182C631.545 2.39999 638.755 3.76533 644.814 6.49599C650.958 9.22666 655.694 13.152 659.022 18.272C662.35 23.3067 664.014 29.28 664.014 36.192C664.014 43.104 662.35 49.0773 659.022 54.112C655.694 59.1467 650.958 63.072 644.814 65.888C638.755 68.6187 631.545 69.984 623.182 69.984H596.814L610.254 57.056V92H580.046ZM610.254 60.384L596.814 46.688H621.262C625.443 46.688 628.515 45.7493 630.478 43.872C632.526 41.9947 633.55 39.4347 633.55 36.192C633.55 32.9493 632.526 30.3893 630.478 28.512C628.515 26.6347 625.443 25.696 621.262 25.696H596.814L610.254 12V60.384ZM659.693 92L698.861 2.39999H728.557L767.725 92H736.493L707.565 16.736H719.341L690.413 92H659.693ZM682.989 76.384L690.669 54.624H731.885L739.565 76.384H682.989ZM772.546 92V2.39999H797.378L842.946 56.928H831.426V2.39999H860.866V92H836.034L790.466 37.472H801.986V92H772.546ZM898.461 92V52.704L905.373 70.752L864.669 2.39999H896.541L924.061 49.12H905.501L933.277 2.39999H962.461L922.013 70.752L928.669 52.704V92H898.461Z" fill="#101010"/>
</svg>

<svg width="963" height="95" fill="none" xmlns="http://www.w3.org/2000/svg"><path d="M39.704 94.048c-7.51 0-14.763-.853-21.76-2.56-6.997-1.707-12.757-3.925-17.28-6.656l9.728-22.016c4.267 2.475 9.003 4.48 14.208 6.016 5.29 1.45 10.41 2.176 15.36 2.176 2.901 0 5.163-.17 6.784-.512 1.707-.427 2.944-.981 3.712-1.664.768-.768 1.152-1.664 1.152-2.688 0-1.621-.896-2.901-2.688-3.84-1.792-.939-4.181-1.707-7.168-2.304a257.196 257.196 0 00-9.6-2.048c-3.499-.768-7.04-1.75-10.624-2.944a42.832 42.832 0 01-9.728-4.736c-2.901-1.963-5.248-4.523-7.04-7.68-1.792-3.243-2.688-7.253-2.688-12.032 0-5.547 1.536-10.581 4.608-15.104 3.157-4.608 7.808-8.277 13.952-11.008C26.862 1.718 34.584.352 43.8.352c6.059 0 12.032.64 17.92 1.92 5.888 1.28 11.179 3.243 15.872 5.888l-9.088 21.888c-4.437-2.219-8.747-3.883-12.928-4.992-4.096-1.11-8.107-1.664-12.032-1.664-2.901 0-5.205.256-6.912.768-1.707.512-2.944 1.195-3.712 2.048-.683.853-1.024 1.792-1.024 2.816 0 1.536.896 2.773 2.688 3.712 1.792.853 4.139 1.579 7.04 2.176 2.987.597 6.23 1.237 9.728 1.92a78.016 78.016 0 0110.624 2.816c3.499 1.195 6.699 2.773 9.6 4.736 2.987 1.963 5.376 4.523 7.168 7.68 1.792 3.157 2.688 7.083 2.688 11.776 0 5.461-1.579 10.496-4.736 15.104-3.072 4.523-7.68 8.192-13.824 11.008-6.144 2.73-13.867 4.096-23.168 4.096zM108.627 92V25.824h-26.24V2.4h82.688v23.424h-26.24V92h-30.208zm64.294 0V2.4h30.208V92h-30.208zm129.461 2.048c-7.168 0-13.824-1.11-19.968-3.328-6.059-2.304-11.349-5.547-15.872-9.728-4.437-4.181-7.893-9.13-10.368-14.848-2.475-5.717-3.712-12.032-3.712-18.944 0-6.912 1.237-13.227 3.712-18.944 2.475-5.717 5.931-10.667 10.368-14.848 4.523-4.181 9.813-7.381 15.872-9.6 6.144-2.304 12.8-3.456 19.968-3.456 8.789 0 16.555 1.536 23.296 4.608 6.827 3.072 12.459 7.51 16.896 13.312l-19.072 17.024c-2.645-3.328-5.589-5.888-8.832-7.68-3.157-1.877-6.741-2.816-10.752-2.816-3.157 0-6.016.512-8.576 1.536a18.713 18.713 0 00-6.656 4.48c-1.792 1.963-3.2 4.352-4.224 7.168-1.024 2.73-1.536 5.803-1.536 9.216 0 3.413.512 6.528 1.536 9.344 1.024 2.73 2.432 5.077 4.224 7.04a18.713 18.713 0 006.656 4.48c2.56 1.024 5.419 1.536 8.576 1.536 4.011 0 7.595-.896 10.752-2.688 3.243-1.877 6.187-4.48 8.832-7.808l19.072 17.024c-4.437 5.717-10.069 10.155-16.896 13.312-6.741 3.072-14.507 4.608-23.296 4.608zm94.015 0c-7.253 0-13.995-1.152-20.224-3.456-6.144-2.304-11.477-5.547-16-9.728-4.523-4.267-8.064-9.259-10.624-14.976-2.475-5.717-3.712-11.947-3.712-18.688 0-6.827 1.237-13.056 3.712-18.688 2.56-5.717 6.101-10.667 10.624-14.848 4.523-4.267 9.856-7.552 16-9.856 6.229-2.304 12.971-3.456 20.224-3.456 7.339 0 14.08 1.152 20.224 3.456 6.144 2.304 11.477 5.59 16 9.856 4.523 4.181 8.021 9.13 10.496 14.848 2.56 5.632 3.84 11.861 3.84 18.688 0 6.741-1.28 12.97-3.84 18.688a44.892 44.892 0 01-10.496 14.976c-4.523 4.181-9.856 7.424-16 9.728-6.144 2.304-12.885 3.456-20.224 3.456zm0-24.448c2.816 0 5.419-.512 7.808-1.536 2.475-1.024 4.608-2.475 6.4-4.352 1.877-1.963 3.328-4.31 4.352-7.04 1.024-2.816 1.536-5.973 1.536-9.472 0-3.499-.512-6.613-1.536-9.344-1.024-2.816-2.475-5.163-4.352-7.04a17.745 17.745 0 00-6.4-4.48c-2.389-1.024-4.992-1.536-7.808-1.536s-5.461.512-7.936 1.536c-2.389 1.024-4.523 2.517-6.4 4.48-1.792 1.877-3.2 4.224-4.224 7.04-1.024 2.73-1.536 5.845-1.536 9.344 0 3.499.512 6.656 1.536 9.472 1.024 2.73 2.432 5.077 4.224 7.04a20.283 20.283 0 006.4 4.352c2.475 1.024 5.12 1.536 7.936 1.536zM457.921 92V2.4h24.832l35.84 58.496h-13.056L540.353 2.4h24.832l.256 89.6h-27.52l-.256-48.128h4.352l-23.808 40.064h-13.312l-24.832-40.064h5.376V92h-27.52zm122.125 0V2.4h43.136c8.363 0 15.573 1.365 21.632 4.096 6.144 2.73 10.88 6.656 14.208 11.776 3.328 5.035 4.992 11.008 4.992 17.92 0 6.912-1.664 12.885-4.992 17.92-3.328 5.035-8.064 8.96-14.208 11.776-6.059 2.73-13.269 4.096-21.632 4.096h-26.368l13.44-12.928V92h-30.208zm30.208-31.616l-13.44-13.696h24.448c4.181 0 7.253-.939 9.216-2.816 2.048-1.877 3.072-4.437 3.072-7.68 0-3.243-1.024-5.803-3.072-7.68-1.963-1.877-5.035-2.816-9.216-2.816h-24.448L610.254 12v48.384zM659.693 92l39.168-89.6h29.696L767.725 92h-31.232l-28.928-75.264h11.776L690.413 92h-30.72zm23.296-15.616l7.68-21.76h41.216l7.68 21.76h-56.576zM772.546 92V2.4h24.832l45.568 54.528h-11.52V2.4h29.44V92h-24.832l-45.568-54.528h11.52V92h-29.44zm125.915 0V52.704l6.912 18.048L864.669 2.4h31.872l27.52 46.72h-18.56L933.277 2.4h29.184l-40.448 68.352 6.656-18.048V92h-30.208z" fill="#101010"/></svg>
